X: 091
M: C|
L: 1/8
K: G
|:\
(gd).g.a (gb).a.g | fdad bdad | gdga gbag | dgfa g/g/gg2 |
gdga gbag | agab c'bab | gedc Bdge | dBcA G/G/GG2 |]


